Numix/64/mimetypes/text-x-chdr.svg

<?xml version="1.0" encoding="UTF-8" standalone="no"?>
<svg
   xmlns:dc="http://purl.org/dc/elements/1.1/"
   xmlns:cc="http://creativecommons.org/ns#"
   xmlns:rdf="http://www.w3.org/1999/02/22-rdf-syntax-ns#"
   xmlns:svg="http://www.w3.org/2000/svg"
   xmlns="http://www.w3.org/2000/svg"
   xmlns:sodipodi="http://sodipodi.sourceforge.net/DTD/sodipodi-0.dtd"
   xmlns:inkscape="http://www.inkscape.org/namespaces/inkscape"
   width="64px"
   height="64px"
   viewBox="0 0 64 64"
   version="1.1"
   id="svg2"
   inkscape:version="0.91 r"
   sodipodi:docname="text-x-chdr.svg">
  <metadata
     id="metadata39">
    <rdf:RDF>
      <cc:Work
         rdf:about="">
        <dc:format>image/svg+xml</dc:format>
        <dc:type
           rdf:resource="http://purl.org/dc/dcmitype/StillImage" />
        <dc:title></dc:title>
      </cc:Work>
    </rdf:RDF>
  </metadata>
  <defs
     id="defs37">
    <clipPath
       id="clipPath-889157936">
      <g
         id="g17"
         transform="translate(0,-1004.3622)">
        <path
           id="path19"
           transform="matrix(15.333333,0,0,11.5,414.99999,878.8622)"
           d="m -24,13 c 0,1.105 -0.672,2 -1.5,2 -0.828,0 -1.5,-0.895 -1.5,-2 0,-1.105 0.672,-2 1.5,-2 0.828,0 1.5,0.895 1.5,2 z"
           inkscape:connector-curvature="0"
           style="fill:#1890d0" />
      </g>
    </clipPath>
  </defs>
  <sodipodi:namedview
     pagecolor="#ffffff"
     bordercolor="#666666"
     borderopacity="1"
     objecttolerance="10"
     gridtolerance="10"
     guidetolerance="10"
     inkscape:pageopacity="0"
     inkscape:pageshadow="2"
     inkscape:window-width="1920"
     inkscape:window-height="1056"
     id="namedview35"
     showgrid="true"
     inkscape:zoom="8"
     inkscape:cx="59.084272"
     inkscape:cy="10.163426"
     inkscape:window-x="0"
     inkscape:window-y="24"
     inkscape:window-maximized="1"
     inkscape:current-layer="svg2">
    <inkscape:grid
       type="xygrid"
       id="grid4235" />
  </sodipodi:namedview>
  <path
     inkscape:connector-curvature="0"
     id="path5"
     d="M 10.671875,0 C 9.296875,0 8,1.355469 8,2.789062 L 8,61.210938 C 8,62.566406 9.375,64 10.671875,64 l 42.65625,0 C 54.625,64 56,62.566406 56,61.210938 L 56,18 38,0 Z m 0,0"
     style="fill:#dcdcdc;fill-opacity:1;fill-rule:nonzero;stroke:none" />
  <path
     inkscape:connector-curvature="0"
     id="path7"
     d="m 42,18 14,14 0,-14 z m 0,0"
     style="fill:#000000;fill-opacity:0.19607801;fill-rule:nonzero;stroke:none" />
  <path
     inkscape:connector-curvature="0"
     id="path9"
     d="M 38,0 55.984375,18 40.757812,18 C 39.410156,18 38,16.574219 38,15.226562 Z m 0,0"
     style="fill:#ffffff;fill-opacity:0.39215698;fill-rule:nonzero;stroke:none" />
  <g
     transform="matrix(1.6922056,0,0,1.5823645,-7.2729512,-10.181817)"
     style="font-style:normal;font-variant:normal;font-weight:normal;font-stretch:normal;font-size:32.66667175px;line-height:125%;font-family:Ubuntu;-inkscape-font-specification:Ubuntu;letter-spacing:0px;word-spacing:0px;fill:#3e3e3e;fill-opacity:1;stroke:none;stroke-width:1px;stroke-linecap:butt;stroke-linejoin:miter;stroke-opacity:1"
     id="text4137">
    <path
       d="m 29.708668,39.296772 -3.546048,0 0,-8.600132 c 0,-1.179452 -0.211771,-2.061604 -0.582177,-2.646457 -0.360659,-0.594601 -1.182418,-0.989017 -2.124352,-0.989017 -0.713996,0 -1.389944,0.230245 -1.717019,0.464186 -0.371619,0.265802 -0.580948,0.56382 -0.814889,1.021955 -0.233941,0.458134 -0.39965,1.023492 -0.497125,1.696072 -0.09748,0.672581 -0.173628,1.421846 -0.173628,2.310168 l 0,6.743225 -3.54581,0 0,-22.750763 3.5458,0 0,9.442569 c 0.477631,-0.848037 1.143518,-1.457259 1.884331,-1.827665 0.740813,-0.380154 1.640608,-0.554072 2.576372,-0.554072 0.809045,0 1.264473,0.100813 1.917559,0.334753 0.662833,0.224194 1.22819,0.579979 1.696072,1.067356 0.467882,0.487377 0.828541,1.11122 1.081977,1.871528 0.253436,0.75056 0.298937,1.652208 0.298937,2.704943 z"
       style="font-style:normal;font-variant:normal;font-weight:bold;font-stretch:normal;font-family:'Droid Sans';-inkscape-font-specification:'Droid Sans Bold';fill:#3e3e3e;fill-opacity:1"
       id="path4142"
       inkscape:connector-curvature="0"
       sodipodi:nodetypes="ccscsssssccccccscscsc" />
  </g>
  <g
     id="g53"
     clip-path="url(#clipPath-889157936)"
     transform="matrix(1.3333062,0,0,1.3333062,56.000163,3.9985596)">
    <!-- color: #aade54 -->
    <g
       id="g55" />
  </g>
</svg>

<svg xmlns="http://www.w3.org/2000/svg" viewBox="0 0 64 64">
 <defs>
  
 </defs>
 <path d="m 10.672 0 c -1.375 0 -2.672 1.355 -2.672 2.789 l 0 58.42 c 0 1.355 1.375 2.789 2.672 2.789 l 42.656 0 c 1.297 0 2.672 -1.434 2.672 -2.789 l 0 -43.21 -18 -18 m -27.328 0" style="fill:#dcdcdc;fill-opacity:1;stroke:none;fill-rule:nonzero"/>
 <path d="m 42 18 14 14 0 -14 z m 0 0" style="fill:#000;fill-opacity:0.196;stroke:none;fill-rule:nonzero"/>
 <path d="m 38 0 17.984 18 -15.227 0 c -1.348 0 -2.758 -1.426 -2.758 -2.773 m 0 -15.227" style="fill:#fff;fill-opacity:0.392;stroke:none;fill-rule:nonzero"/>
 <g transform="matrix(1.6922056,0,0,1.5823645,-7.2729512,-10.181817)" style="fill:#3e3e3e;fill-opacity:1;stroke:none">
  <path d="m 29.709 39.3 -3.546 0 0 -8.6 c 0 -1.179 -0.212 -2.062 -0.582 -2.646 -0.361 -0.595 -1.182 -0.989 -2.124 -0.989 -0.714 0 -1.39 0.23 -1.717 0.464 -0.372 0.266 -0.581 0.564 -0.815 1.022 -0.234 0.458 -0.4 1.023 -0.497 1.696 -0.097 0.673 -0.174 1.422 -0.174 2.31 l 0 6.743 -3.546 0 0 -22.751 3.546 0 0 9.443 c 0.478 -0.848 1.144 -1.457 1.884 -1.828 0.741 -0.38 1.641 -0.554 2.576 -0.554 0.809 0 1.264 0.101 1.918 0.335 0.663 0.224 1.228 0.58 1.696 1.067 0.468 0.487 0.829 1.111 1.082 1.872 0.253 0.751 0.299 1.652 0.299 2.705 z"/>
 </g>
 <g transform="matrix(1.3333062,0,0,1.3333062,56.000163,3.9985596)" style="clip-path:url(#clipPath-889157936)">
  <!-- color: #aade54 -->
 </g>
</svg>
